storage/app/icons/phosphoricons/bold/tea-bag-bold.svg

<svg xmlns="http://www.w3.org/2000/svg" fill="currentColor" viewBox="0 0 256 256"><path d="M224 156a12 12 0 0 1-12-12V64a60 60 0 0 0-120 0v4H76.53a20.1 20.1 0 0 0-17.15 9.71l-20.53 34.21a20.07 20.07 0 0 0-2.85 10.3V216a20 20 0 0 0 20 20h96a20 20 0 0 0 20-20v-93.78a20 20 0 0 0-2.85-10.29l-20.53-34.22A20.1 20.1 0 0 0 131.47 68H116v-4a36 36 0 0 1 72 0v80a36 36 0 0 0 36 36 12 12 0 0 0 0-24m-94.79-64L148 123.32V212H60v-88.68L78.79 92H92v44a12 12 0 0 0 24 0V92Z"/></svg>

<svg xmlns="http://www.w3.org/2000/svg" viewBox="0 0 256 256" fill="currentColor"><path d="M224,156a12,12,0,0,1-12-12V64A60,60,0,0,0,92,64v4H76.53a20.1,20.1,0,0,0-17.15,9.71L38.85,111.92A20.07,20.07,0,0,0,36,122.22V216a20,20,0,0,0,20,20h96a20,20,0,0,0,20-20V122.22a20,20,0,0,0-2.85-10.29L148.62,77.71A20.1,20.1,0,0,0,131.47,68H116V64a36,36,0,0,1,72,0v80a36,36,0,0,0,36,36,12,12,0,0,0,0-24ZM129.21,92,148,123.32V212H60V123.32L78.79,92H92v44a12,12,0,0,0,24,0V92Z"/></svg>
